src/images/svg/search.svg

<svg width="16" height="16" viewBox="0 0 16 16" fill="none" xmlns="http://www.w3.org/2000/svg">
<path d="M15.8187 14.0625L12.607 11.3156C13.5516 10.0945 14.0625 8.60156 14.0625 7.03125C14.0625 5.15156 13.3289 3.38906 12.0023 2.06016C10.6758 0.73125 8.90859 0 7.03125 0C5.15391 0 3.38672 0.733594 2.06016 2.06016C0.73125 3.38672 0 5.15156 0 7.03125C0 8.90859 0.733594 10.6758 2.06016 12.0023C3.38672 13.3312 5.15156 14.0625 7.03125 14.0625C8.60156 14.0625 10.0922 13.5516 11.3133 12.6094L14.5249 15.3539C14.5428 15.3718 14.564 15.3859 14.5873 15.3956C14.6106 15.4053 14.6356 15.4102 14.6609 15.4102C14.6861 15.4102 14.7111 15.4053 14.7344 15.3956C14.7578 15.3859 14.7789 15.3718 14.7968 15.3539L15.8187 14.3344C15.8365 14.3165 15.8507 14.2953 15.8604 14.272C15.87 14.2487 15.875 14.2237 15.875 14.1984C15.875 14.1732 15.87 14.1482 15.8604 14.1249C15.8507 14.1015 15.8365 14.0803 15.8187 14.0625ZM10.7438 10.7438C9.75 11.7352 8.43281 12.2812 7.03125 12.2812C5.62969 12.2812 4.3125 11.7352 3.31875 10.7438C2.32734 9.75 1.78125 8.43281 1.78125 7.03125C1.78125 5.62969 2.32734 4.31016 3.31875 3.31875C4.3125 2.32734 5.62969 1.78125 7.03125 1.78125C8.43281 1.78125 9.75234 2.325 10.7438 3.31875C11.7352 4.3125 12.2812 5.62969 12.2812 7.03125C12.2812 8.43281 11.7352 9.75234 10.7438 10.7438Z" fill="#999999"/>
</svg>

<svg width="16" height="16" fill="none" xmlns="http://www.w3.org/2000/svg"><path d="M15.819 14.063l-3.212-2.747a6.968 6.968 0 001.456-4.285c0-1.88-.734-3.642-2.06-4.97A6.98 6.98 0 007.03 0a6.99 6.99 0 00-4.97 2.06A6.975 6.975 0 000 7.031c0 1.878.734 3.645 2.06 4.971a6.975 6.975 0 004.971 2.06 6.97 6.97 0 004.282-1.453l3.212 2.745a.193.193 0 00.272 0l1.022-1.02a.195.195 0 00.056-.136.193.193 0 00-.056-.136zm-5.075-3.32a5.222 5.222 0 01-3.713 1.538 5.222 5.222 0 01-3.712-1.537A5.222 5.222 0 011.78 7.03c0-1.401.546-2.72 1.538-3.712A5.222 5.222 0 017.03 1.78c1.402 0 2.721.544 3.713 1.538A5.222 5.222 0 0112.28 7.03a5.218 5.218 0 01-1.537 3.713z" fill="#999"/></svg>
